!!!COM: Beethoven
!!!OTL: 6 Variationen uber "Nel cor piu non mi sento" von G. Paisiello
!!!Variation: Variation 1 c
**function	**harm	**kern	**kern
*	*	*clefF4	*clefG2
*	*	*k[f#]	*k[f#]
*M6/8	*M6/8	*M6/8	*M6/8
*G:	*G:	*G:	*G:
8T	V	r	16ddLL
.	.	.	16bJJ
=29	=29	=29	=29
2.P	V/ii	16ELL	r
.	.	16G#	.
.	.	16B	.
.	.	16e	.
.	.	r	16g#
.	.	.	16bJJ
.	.	4G# 4e	16eeLL
.	.	.	16gg#
.	.	.	16bb
.	.	.	16gg#
.	.	r	16ee
.	.	.	16ddJJ
=30	=30	=30	=30
2.P	ii	4A 4e	16ccLL
.	.	.	16dd
.	.	.	16ee
.	.	.	16dd
.	.	r	16cc
.	.	.	16bJJ
.	.	r	16aLL
.	.	.	16b
.	.	.	16cc
.	.	.	16b
.	.	.	16a
.	.	.	16gJJ
=31	=31	=31	=31
4.D	V	4D 4d	16f#LL
.	.	.	16d
.	.	.	16f#
.	.	.	16a
.	.	r	16dd
.	.	.	16ff#JJ
4.D	Vb	4F# 4d	16aaLL
.	.	.	16gg
.	.	.	16ff#
.	.	.	16ee
.	.	r	16dd
.	.	.	16ccJJ
=32	=32	=32	=32
4.T	I	4G 4d	16bLL
.	.	.	16cc
.	.	.	16dd
.	.	.	16cc
.	.	r	16b
.	.	.	16aJJ
4.T	I	r	16gLL
.	.	.	16a
.	.	.	16b-
.	.	.	16b
.	.	.	16cc
.	.	.	16cc#JJ
=33	=33	=33	=33
2.D	V7c/V	2.E 2.G 2.A	16ddLL
.	.	.	16dd#
.	.	.	16ee
.	.	.	16ff
.	.	.	16ff#
.	.	.	16ggJJ
.	.	.	16aaLL
.	.	.	16gg
.	.	.	16ff#
.	.	.	16ee
.	.	.	16dd
.	.	.	16cc#JJ
=34	=34	=34	=34
.	.	.	q8ee
2.D	V	4D; 4F#; 4A;	4dd;
.	.	r	16cc#LL
.	.	.	16ddJJ
.	.	r	16cc#LL
.	.	.	16dd
.	.	.	16cc#
.	.	.	16dd
.	.	r	16ee
.	.	.	16ddJJ
=35	=35	=35	=35
4.D	V7b	(8F#	16ccLL
.	.	.	16b
.	.	4d)	16a
.	.	.	16dd
.	.	.	16cc#
.	.	.	16ddJJ
4.T	I	(8G	16bLL
.	.	.	16a
.	.	4d)	16g
.	.	.	16dd
.	.	.	16cc#
.	.	.	16ddJJ
=36	=36	=36	=36
2.T	V	(8D	16aLL
.	.	.	16g
.	.	4d)	16f#
.	.	.	16dd
.	.	.	16cc#
.	.	.	16ddJJ
.	.	r	16dLL
.	.	.	16dd
.	.	.	16f#
.	.	.	16dd
.	.	.	16a
.	.	.	16ddJJ
*-	*-	*-	*-
